X:1
T:Verborgenheit
T:Hugo Wolf (1860-1903)
T:Copyright © Robert Nottingham 2005 (RobertNottingham6@Hotmail.com) Edition may be freely distributed, duplicated, performed, or recorded.
T:no. 12 from 'Morike-Lieder' (1888)
T:Verborgenheit
T:Copyright © Robert Nottingham 2005 (RobertNottingham6@Hotmail.com) Edition may be freely distributed, duplicated, performed, or recorded.
T:Copyright © Robert Nottingham 2005 (RobertNottingham6@Hotmail.com) Edition may be freely distributed, duplicated, performed, or recorded.
T:Copyright © Robert Nottingham 2005 (RobertNottingham6@Hotmail.com) Edition may be freely distributed, duplicated, performed, or recorded.
T:Copyright © Robert Nottingham 2005 (RobertNottingham6@Hotmail.com) Edition may be freely distributed, duplicated, performed, or recorded.
T:Copyright © Robert Nottingham 2005 (RobertNottingham6@Hotmail.com) Edition may be freely distributed, duplicated, performed, or recorded.
T:Copyright © Robert Nottingham 2005 (RobertNottingham6@Hotmail.com) Edition may be freely distributed, duplicated, performed, or recorded.
C:Hugo Wolf
C:(1860-1903)
Z:Copyright © Robert Nottingham 2005 (RobertNottingham6@Hotmail.com)
Z:Edition may be freely distributed, duplicated, performed, or recorded.
%%score 1 { ( 2 3 ) | ( 4 5 ) }
L:1/8
M:4/4
K:Eb
V:1 treble-8 transpose=-12 nm="P1"
V:2 treble nm="P2"
V:3 treble 
V:4 bass 
V:5 bass 
V:1
"^Massig und sehr innig" z8 | z8 | B2 =A2 _A3 F | B2 c2 B4 | B2 e2 E3 E | B3 G F2 ^F2 | %6
w: ||Lass, o Welt, o|lass mich sein!|lo- cket nicht mit|Lie- bes- ga- ben,|
 B2 c2 B3 B | (B d2) c B2 A2 | G2 B2 e4- |"^rit." eG B>D"^a tempo" E4 | z G2 G G2 ^F2 | %11
w: lasst dies Herz al-|lei- * ne ha- ben|sei- ne Won-|* ne, sei- ne Pein!|Was ich trau- re,|
 c3 c (c2 =B2) | z c2 c e3 e | d2 c2 c2 =B2 | f2 e2 d3 c | f2 e2 d3 c | B2 B2 B3 B | %17
w: weiss ich nicht, _|es ist un- be-|kann- tes We- he;|im- mer- dar durch|Trä- nen se- he|ich der Son- ne|
 (B A2) _G _d4 |"^nach und nach belebter und leidenschaftlicher" z8 | F2 F2 F2 F2 | F3 c (c2 =B2) | %21
w: lie- * bes Licht.||Oft bin ich mir|kaum be- wusst _|
 _B2 B2 e3 e | (_g2 f)e ed z2 | z _g2 =A _c B2 z | z e2 _g f e3 |"^rit." =g3 f eBGE | %26
w: und die hel- le|Freu- * de zü- cket|durch die Schwe- re,|so mich drü- cket,|won- nig- lich in mei- ner|
"^rit." A4 z4 |"^tempo primo" B2 =A2 _A3 F | B2 c2 B4 | B2 e2 E3 E | B3 G F2 ^F2 | B2 c2 B3 B | %32
w: Brust.|Lass, o Welt, o|lass mich sein!|lo- cket nicht mit|Lie- bes- ga- ben,|lasst dies Herz al-|
 (B d2) c B2 A2 | G2 B2 e4- |"^rit." eG B>D E4 | z8 |] %36
w: lei- * ne ha- ben|sei- ne Won-|* ne, sei- ne Pein!||
V:2
!p! (G3 ^F G3 F |!>(! G3 ^F G3!>)! F) |!pp! (G2 c2 B3 A | G2 _G2 F3 _A) |!<(! (G2 E2 E3!<)! E | %5
 B3 G!>(! FGA!>)!=A) |!pp! (B2 =A2 _A3 A |!<(! G2 _G2!<)!!>(! F3!>)! _A) | %8
!<(! (G2 B2!<)!!>(! eGA!>)!=A) | [EGB]2 [A,D]2 [G,E][B,EG][B,EG][B,EG] | %10
!<(! [CEG][CEG][CEG]!<)![CEG]!>(! [CEG][CEG][CE^F]!>)![CEF] | %11
!<(! [D^Fc][DFc][DFc]!<)![DFc]!mf! [=FAc][FAc][FA=B][FAB] | %12
!<(! [A=Bf][Acf][Acf][Acf] [ce^f][cef][ceg]!<)![ceg] | %13
!f! [cda]!>(![cda][cd=a][cda] [c^fb][cfb][=B=f=b]!>)![Bfb] | %14
!p! [=Bf=b]!<(![cfc'][cfc'][c^fc'] [cfc'][cgc'][cac']!<)![cac'] | %15
!<(! [=Bf=b][cfc'][cfc'][c^fc'] [cfc'][dfd'][dfd']!<)![efe'] | %16
!pp! [d_gb][ebe'][ebe'][fbf'] [ebe'][fbf'][fbf'][gb_g'] | %17
 [_gbf'][ga_g'][gag'][gag'] [=g_c'=g'][ac'a'][ac'a'][ac'a'] | %18
 [a_c'a']!8va(![_d'a'_d''][d'a'd''][d'a'd''] [d'a'd'']!8va)![f'a'd''][fad'][fad'] | %19
!pp! [B,=DF]!<(![B,DF][B,DF][B,DF] [B,_DF][B,DF][B,DF][B,DF] | %20
 [F,CF][F,CF][F,CF][F,CF]!<)! [C=DF][CDF][=B,DF][B,DF] | %21
 [_B,E_G][B,EG]!<(![B,EG][B,EG] [_G,EG][G,EG][G,EG]!<)![G,EG] | %22
!f! [_G,=C_G][G,CG][G,CG][G,CG] [A,B,G]!<(![=DF=d][EGe]!<)![FAdf] | %23
!ff! [_G_ce_g]!mf![_G,_CEG][G,CEG][G,CEG] z!p!!<(! [=DF=d][EGe]!<)![F_Adf] | %24
!ff! [_G_ce_g]!mf![_G,_CEG][G,CEG][G,CEG]!<(! [A,E_A][Geg][Aea]!<)![=Ae=a] | %25
!ff! [Be=gb]!>(![G,EG][G,EG][G,EG] [G,EG][G,EG][G,EG]!>)![G,EG] | %26
!p!!>(! (A3 G [B,EF])[B,EG]!>)![B,EA][B,D=A] |!pp! (G2 c2 B3 A | G2 _G2 F3 _A) | %29
!<(! (G2 E2 E3!<)! E | B3 G!>(! FGA!>)!=A) |!pp! (B2 =A2 _A3 A |!<(! G2 _G2!<)!!>(! F3!>)! _A) | %33
!<(! (G2 B2!<)!!>(! eGA=A | [EGB]2)!>)! z2 [G,E]4- | [G,E]4 z4 |] %36
V:3
 (EB,=A,E- EB,A,E-) | (EB,=A,E- EB,A,E-) | (EB,E_G FCDB,) | (EB,=A,E- ECDB,) | (EDCB, CB,A,G,) | %5
 (B,CDE E2 D2 | GB,E_G FCDB,) | (EB,=A,E- ECDB,) | (EB,FA G E2 E-) | x8 | x8 | x8 | x8 | x8 | x8 | %15
 x8 | x8 | x8 | x!8va(! x4!8va)! x3 | x8 | x8 | x8 | x8 | x8 | x8 | x8 | [A,_C][A,C][A,C][A,C] x4 | %27
 (EB,E_G FCDB,) | (EB,=A,E- ECDB,) | (EDCB, CB,A,G,) | (B,CDE E2 D2 | GB,E_G FCDB,) | %32
 (EB,=A,E- ECDB,) | EB,FA G E2 E- | x8 | x8 |] %36
V:4
 [E,,B,,]3 [E,,B,,] [E,,B,,]3 [E,,B,,] | [E,,B,,]3 [E,,B,,] [E,,B,,]3 [E,,B,,] | %2
 [E,,B,,]3 [E,,B,,] [E,,B,,]3 [E,,B,,] | [E,,B,,]3 [E,,B,,] [E,,B,,]3 [E,,B,,] | %4
 [E,,B,,]3 [E,,B,,] [C,,C,]3 [C,,C,] | [G,,E,]3 [G,,E,] F,2 ^F,2 | %6
 [E,,B,,]3 [E,,B,,] [E,,B,,]3 [E,,B,,] | [E,,B,,]3 [E,,B,,] [E,,B,,]3 [E,,B,,] | %8
 [E,,B,,]2 [D,,B,,]2 [C,,C,]2 [_C,,_C,]2 | %9
 [B,,,B,,]2 [B,,F,]2"^a tempo" [E,,B,,E,]2- [E,,B,,E,] z | z2 [C,,C,]2 [A,,A,]4 | %11
 z2 [A,,A,]2 [D,D]4- | [D,D]2 [E,E]2 [A,A]3 [G,G] | [^F,^F]4 [G,G]4 | %14
 [A,=B,A][A,CA][A,CA][A,CA] [A,CA][A,CA][A,CA][A,CA] | %15
 [A,=B,A][A,CA][A,CA][A,CA] [=A,C^F=A][A,CFA][A,CFA][A,CFA] | %16
 [B,E_GB][B,EGB][B,EGB][B,EGB] [_CGB][CGB][CGB][CGB] | %17
 [_C_G_c][=CA=c][CAc][CAc] [_DF_c][DFc][DFc][DFc] | %18
 [_DF_c][_df_c'][dfc'][dfc'] [dfc'][DFc][DFc][DFc] | [B,,,B,,]3 [B,,,B,,] [_D,,_D,]3 [D,,D,] | %20
 [=A,,,=A,,]3 [_A,,,_A,,] [G,,,G,,]4 | [E,,E,]3 [_D,,_D,] [_C,,_C,]3 [B,,,B,,] | %22
 [=A,,,=A,,]3 [A,,,A,,] [B,,,B,,][B,,_A,B,][B,,_G,B,][B,,F,B,] | %23
 [=A,,E,=A,][A,,E,A,][A,,E,A,][A,,E,A,] B,,,[B,,_A,B,][B,,_G,B,][B,,F,B,] | %24
 [=A,,E,=A,][A,,E,A,][A,,E,A,][A,,E,A,] [=C,_G,C][C,G,_A,C][C,G,A,C][_C,G,_C] | %25
 [B,,E,B,][B,,E,B,][B,,E,B,][B,,E,B,] [=C,E,=C][C,E,C][C,E,C][C,E,C] | %26
 F,,,[F,,E,][F,,E,][F,,E,] [B,,A,][B,,G,][B,,F,][B,,^F,] | [E,,B,,]3 [E,,B,,] [E,,B,,]3 [E,,B,,] | %28
 [E,,B,,]3 [E,,B,,] [E,,B,,]3 [E,,B,,] | [E,,B,,]3 [E,,B,,] [C,,C,]3 [C,,C,] | %30
 [G,,E,]3 [G,,E,] F,2 ^F,2 | [E,,B,,]3 [E,,B,,] [E,,B,,]3 [E,,B,,] | %32
 [E,,B,,]3 [E,,B,,] [E,,B,,]3 [E,,B,,] | %33
"^for an excellent translation, see Brian Cole's at:http://www.brindin.com/pgmorver.htm" [E,,B,,]2 [D,,B,,]2 [C,,C,]2 [_C,,_C,]2 | %34
 B,,,2 [B,,F,]2 [E,,B,,E,]4- | [E,,B,,E,]4 z4 |] %36
V:5
 x8 | x8 | x8 | x8 | x8 | x4 B,,4 | x8 | x8 | x8 | x8 | x8 | x8 | x8 | x8 | x8 | x8 | x8 | x8 | %18
 x8 | x8 | x8 | x8 | x8 | x8 | x8 | x8 | x8 | x8 | x8 | x8 | x4 B,,4 | x8 | x8 | x8 | x8 | x8 |] %36

